docs/assets/icons/material/tray-full.svg

<?xml version="1.0" encoding="UTF-8" standalone="no"?>
<svg
   viewBox="0 0 24 24"
   version="1.1"
   id="svg1"
   sodipodi:docname="tray-full-outline.svg"
   inkscape:version="1.4.2 (2aeb623e1d, 2025-05-12)"
   xmlns:inkscape="http://www.inkscape.org/namespaces/inkscape"
   xmlns:sodipodi="http://sodipodi.sourceforge.net/DTD/sodipodi-0.dtd"
   xmlns="http://www.w3.org/2000/svg"
   xmlns:svg="http://www.w3.org/2000/svg">
  <defs
     id="defs1" />
  <sodipodi:namedview
     id="namedview1"
     pagecolor="#ffffff"
     bordercolor="#000000"
     borderopacity="0.25"
     inkscape:showpageshadow="2"
     inkscape:pageopacity="0.0"
     inkscape:pagecheckerboard="0"
     inkscape:deskcolor="#d1d1d1"
     inkscape:zoom="11.734608"
     inkscape:cx="12.697484"
     inkscape:cy="12.91053"
     inkscape:window-width="1920"
     inkscape:window-height="1065"
     inkscape:window-x="0"
     inkscape:window-y="32"
     inkscape:window-maximized="1"
     inkscape:current-layer="svg1" />
  <path
     d="M 18,13 H 6 v 2 h 12 z"
     id="path4"
     style="fill:#00b9e4;fill-opacity:1" />
  <path
     d="m 2,12 h 2 v 5 h 16 v -5 h 2 v 5 c 0,1.104569 -0.895431,2 -2,2 H 4 C 2.8954305,19 2,18.104569 2,17"
     id="path3" />
  <path
     d="m 6,9 h 12 v 2 H 6"
     id="path2"
     style="fill:#00b9e4;fill-opacity:1" />
  <path
     d="M 18,5 H 6 v 2 h 12"
     id="path1"
     style="fill:#00b9e4;fill-opacity:1" />
</svg>

<svg xmlns="http://www.w3.org/2000/svg" viewBox="0 0 24 24"><path d="M18 5H6V7H18M6 9H18V11H6M2 12H4V17H20V12H22V17A2 2 0 0 1 20 19H4A2 2 0 0 1 2 17M18 13H6V15H18Z" /></svg>
